X: 278
T: Paddy Taylor's
R: jig
M: 6/8
L: 1/8
K: Dmaj
|: F3 EFE | DFA d2 A | ded cAG | FAF GFE |
FAF EFE | DFA def | edc ABc |1 dfe d3 :|2 dfe d2e | 
|: f2 a g2 e | fdB AB=c | BcB EFG | A2 D FED |
f2 a g2 e | fdB AFA | Bcd ecA |1 dfe d2e :|2 dfe d3 |]
F: https://thesession.org/tunes/13405#setting23592

